X:36
T:Bourree Aurore Sand
I:last changed 14/2/2016
F:http://www.campin.me.uk/Music/Edinbal.abc
M:2/4
L:1/8
S:trad. Berry region
Z:Steve Mansfield
K:GMin
d|G>A Bc|d3   d|dg ^fg|d3   c/d/|e>d cA|B>A GB|A>G AB|G3:|
d|d>c Bc|d>c Bc|d>c de|d>c Bc   |d>c de|d>c Bc|d>c BA|G3:|

